X:1
T:Title
%%score 1 2
L:1/8
Q:1/4=80
M:3/4
K:G
V:1 treble nm="Strings 1, Soprano"
V:2 bass nm="Strings 1, Bass"
V:1
 z2 z [B,D] [B,D][B,G] | [DB]3 [DB] [CA][B,G] | [B,D]3 [B,D] [DG][GB] | [Gd]3 [Ge] [Fd][E^c] | %4
w: 1.~I~ came~ to~|Jor dan's~ sul len~|stream;~ With~ trust ing~|heart~ I~ there~ had~|
 [Fd]3 [Gd] [Gd][GB] | [DG]3 [DB] [CA][B,G] | [B,D]3 [B,D] [DG][EA] | [DB]3 [B,G] [CA][CA] | %8
w: been~ Di rect ed~|by~ my~ Sav ior's~|hand,~ Toward~ Ca naan's~|bright~ and~ bless ed~|
 [B,G]3 D GG | G3 E/D/ [DG][B,G] | [B,G]3 [DG] [GB][GB] | [GB]3 [DA]/[DG]/ [GB][GB] | %12
w: land.~ * * *||||
 [GB]3 [GB] [Gd][Gd] | [Gd]3 [Gd] [Ge][Gd] | [GB]3 G [GB][GB] | [GB]3 [GB] [DA][DG] | %16
w: ||||
 [B,D]3 [B,D] [B,G][B,G] | [DG]3 [DB]/[DB]/ [DA][CA] | [B,G]4 z2 |] %19
w: |||
V:2
 z2 z [G,,G,] [G,,G,][G,,G,] | [G,,G,]3 [G,,G,] [G,,D,][G,,D,] | [G,,G,]3 G, [G,B,][G,D] | %3
 [G,B,]3 [E,B,] A,A, | [D,A,]3 [G,B,] [G,B,][G,D] | [G,B,]3 [G,,G,] [G,,D,][G,,D,] | %6
 [G,,G,]3 [G,,G,] [B,,G,][C,G,] | [D,G,]3 [D,G,] [D,F,][D,F,] | [G,,G,]3 D, G,G, | %9
 G,3 E,/D,/ [B,,D,]D, | [G,,D,]3 [G,B,] [G,D][G,D] | [G,D]3 [G,C]/[G,B,]/ [G,D][G,D] | %12
 [G,D]3 [G,D] [G,B,][G,B,] | [G,B,]3 [G,B,] [G,C][G,B,] | [G,D]3 [G,B,] [G,D][G,D] | %15
 [G,D]3 [G,D] [G,,C][G,,B,] | [G,,G,]3 [G,,G,] [G,,D,][G,,D,] | %17
 [B,,G,]3 [G,,G,]/[G,,G,]/ [D,F,][D,F,] | [G,,G,]4 z2 |] %19

